X:1
T:Kemp's jig
C:anon.
O:England
Z:Transcribed by Frank Nordberg - http://www.musicaviva.com abcusers 2002-3-1
N:Slightly simplified version
M:C
L:1/4
K:D
"D"f>e f"A"e|"Bm"d>e d"A"c|"G"B"D"A "G"B"A"c|"D"d3z:|
|:"D"fa fa|"D"fa/g/ f2|"C"eg eg|"C"ed/=c/ "G"B"A"^c|
"D"dAFA dAFA|"G"B"D"A "G"B"A"c|"D"d3z:|
